src/pos-icons/email-alert-outline.svg

<svg height="24" viewBox="0 0 24 24" width="24" xmlns="http://www.w3.org/2000/svg"><path d="m20 12v-5h2v5zm0 4v-2h2v2zm-2-9c0-1.1-.9-2-2-2h-12c-1.1 0-2 .9-2 2v9c0 1.1.9 2 2 2h12c1.1 0 2-.9 2-2zm-2 0-6 4-6-4zm0 9h-12v-7l6 4 6-4z"/></svg>

<?xml version="1.0" encoding="UTF-8"?><!DOCTYPE svg PUBLIC "-//W3C//DTD SVG 1.1//EN" "http://www.w3.org/Graphics/SVG/1.1/DTD/svg11.dtd"><svg xmlns="http://www.w3.org/2000/svg" xmlns:xlink="http://www.w3.org/1999/xlink" version="1.1" id="mdi-email-alert-outline" width="24" height="24" viewBox="0 0 24 24"><path d="M20 12V7H22V12H20M20 16V14H22V16H20M18 7C18 5.9 17.1 5 16 5H4C2.9 5 2 5.9 2 7V16C2 17.1 2.9 18 4 18H16C17.1 18 18 17.1 18 16V7M16 7L10 11L4 7H16M16 16H4V9L10 13L16 9V16Z" /></svg>
